images/decorative/contacts/vk-icon.svg

<svg width="14" height="8" viewBox="0 0 14 8" fill="none" xmlns="http://www.w3.org/2000/svg">
<path fill-rule="evenodd" clip-rule="evenodd" d="M6.84965 7.96651H7.68648C7.68648 7.96651 7.93926 7.93871 8.06831 7.79936C8.1871 7.67143 8.1833 7.43117 8.1833 7.43117C8.1833 7.43117 8.16695 6.30644 8.6881 6.14082C9.20183 5.97767 9.86152 7.22785 10.5608 7.70855C11.0895 8.07236 11.4913 7.99259 11.4913 7.99259L13.3609 7.96651C13.3609 7.96651 14.339 7.90616 13.8752 7.1359C13.8372 7.07289 13.6051 6.56611 12.4851 5.52477C11.3128 4.43487 11.4698 4.61116 12.882 2.72588C13.742 1.57774 14.0858 0.876778 13.9784 0.576558C13.876 0.290616 13.2434 0.366194 13.2434 0.366194L11.1383 0.37933C11.1383 0.37933 10.9823 0.358008 10.8666 0.427304C10.7535 0.495268 10.6807 0.65366 10.6807 0.65366C10.6807 0.65366 10.3475 1.54214 9.90315 2.29773C8.96577 3.89212 8.59098 3.97626 8.43779 3.87727C8.08143 3.64653 8.17037 2.95034 8.17037 2.45574C8.17037 0.910665 8.40434 0.266439 7.7148 0.0996707C7.48597 0.0442718 7.31758 0.00771992 6.73238 0.00181831C5.98127 -0.00598703 5.34552 0.00410255 4.98554 0.18077C4.74607 0.298231 4.56133 0.559995 4.67385 0.575035C4.81297 0.593692 5.12809 0.660132 5.29515 0.88801C5.51087 1.18195 5.50327 1.84217 5.50327 1.84217C5.50327 1.84217 5.62719 3.661 5.21381 3.88698C4.93005 4.04194 4.5408 3.72554 3.70511 2.27908C3.27691 1.53814 2.95362 0.719148 2.95362 0.719148C2.95362 0.719148 2.89128 0.566087 2.78009 0.484226C2.64515 0.385041 2.45661 0.35344 2.45661 0.35344L0.456232 0.366575C0.456232 0.366575 0.155938 0.374952 0.0457033 0.505739C-0.0523675 0.622058 0.0379107 0.862691 0.0379107 0.862691C0.0379107 0.862691 1.604 4.53273 3.37726 6.38221C5.00322 8.07788 6.84965 7.96651 6.84965 7.96651Z" fill="#122659"/>
</svg>

<svg width="14" height="8" fill="none" xmlns="http://www.w3.org/2000/svg"><path fill-rule="evenodd" clip-rule="evenodd" d="M6.85 7.967h.836s.253-.028.382-.168c.12-.128.115-.368.115-.368s-.016-1.125.505-1.29c.514-.163 1.174 1.087 1.873 1.568.528.363.93.284.93.284l1.87-.026s.978-.06.514-.831c-.038-.063-.27-.57-1.39-1.611-1.172-1.09-1.015-.914.397-2.8.86-1.147 1.204-1.848 1.096-2.148-.102-.286-.735-.21-.735-.21l-2.105.012s-.156-.021-.271.048a.59.59 0 0 0-.186.227s-.333.888-.778 1.644c-.937 1.594-1.312 1.678-1.465 1.58-.357-.231-.268-.928-.268-1.422C8.17.91 8.404.266 7.715.1 7.486.044 7.318.008 6.732.002c-.75-.008-1.386.002-1.746.179-.24.117-.425.379-.312.394.139.019.454.085.621.313.216.294.208.954.208.954s.124 1.819-.29 2.045c-.283.155-.672-.161-1.508-1.608-.428-.74-.751-1.56-.751-1.56S2.89.566 2.78.484c-.135-.099-.323-.13-.323-.13l-2 .013S.155.375.045.506C-.052.622.038.863.038.863s1.566 3.67 3.34 5.52C5.002 8.077 6.85 7.966 6.85 7.966Z" fill="#122659"/></svg>
